svgs/light/spell-check.svg

<svg xmlns="http://www.w3.org/2000/svg" viewBox="0 0 576 512"><!-- Font Awesome Pro 6.0.0-alpha2 by @fontawesome - https://fontawesome.com License - https://fontawesome.com/license (Commercial License) --><path d="M571.312 281.047C565.062 274.797 554.937 274.797 548.687 281.047L356.36 473.375L251.313 368.328C245.064 362.078 234.939 362.078 228.689 368.328S222.439 384.703 228.689 390.953L345.047 507.312C348.172 510.438 352.266 512 356.36 512C360.454 512 364.547 510.438 367.672 507.312L571.312 303.672C577.562 297.422 577.562 287.297 571.312 281.047ZM222.704 233.703L126.705 9.703C121.674 -2.078 102.33 -2.078 97.299 9.703L1.299 233.703C-2.185 241.813 1.58 251.219 9.705 254.703C17.784 258.203 27.221 254.453 30.705 246.297L53.979 192H170.025L193.298 246.297C195.892 252.375 201.798 256 208.001 256C210.111 256 212.251 255.594 214.298 254.703C222.423 251.219 226.189 241.812 222.704 233.703ZM67.693 160L112.002 56.625L156.31 160H67.693ZM272.001 256H376C415.703 256 448 223.703 448 184C448 152.969 428.266 126.453 400.672 116.359C410.266 104.125 416 88.719 416 72C416 32.297 383.703 0 344 0H272.001C263.157 0 256.001 7.156 256.001 16V240C256.001 248.844 263.157 256 272.001 256ZM288.001 32H344C366.063 32 384 49.938 384 72S366.063 112 344 112H288.001V32ZM288.001 144H376C398.063 144 416 161.938 416 184S398.063 224 376 224H288.001V144Z"/></svg>

<svg xmlns="http://www.w3.org/2000/svg" viewBox="0 0 576 512"><!--! Font Awesome Pro 6.4.0 by @fontawesome - https://fontawesome.com License - https://fontawesome.com/license (Commercial License) Copyright 2023 Fonticons, Inc. --><path d="M126.7 9.7C124.2 3.8 118.4 0 112 0s-12.2 3.8-14.7 9.7l-96 224c-3.5 8.1 .3 17.5 8.4 21s17.5-.3 21-8.4L54 192H170l23.3 54.3c3.5 8.1 12.9 11.9 21 8.4s11.9-12.9 8.4-21l-96-224zM156.3 160H67.7L112 56.6 156.3 160zM256 16V128 240c0 8.8 7.2 16 16 16H376c39.8 0 72-32.2 72-72c0-31.1-19.7-57.6-47.3-67.6C410.3 104.1 416 88.7 416 72c0-39.8-32.2-72-72-72H272c-8.8 0-16 7.2-16 16zm88 96H288V32h56c22.1 0 40 17.9 40 40s-17.9 40-40 40zm-56 32h56 32c22.1 0 40 17.9 40 40s-17.9 40-40 40H288V144zM571.3 299.3c6.2-6.2 6.2-16.4 0-22.6s-16.4-6.2-22.6 0L352 473.4 251.3 372.7c-6.2-6.2-16.4-6.2-22.6 0s-6.2 16.4 0 22.6l112 112c6.2 6.2 16.4 6.2 22.6 0l208-208z"/></svg>
